X:32
T:Kost ar c'hoat
C:Strakal
M:6/8
L:1/8
K:G
D2 EF AG F2|ED EF G2 A2|\
D2 EF AG F2|ED EF G2 G2:|
|:Bd dB cd B2|GG BG FG A2|\
Bd dB cd BB|DD EF G2 G2:|
